!!!!SEGMENT: sonata25-3.krn
!!!COM: Beethoven, Ludwig van
!!!CDT: 1770///-1827///
!!!OTL: Piano Sonata no. 25 in G major
!!!OTP: cuckoo
!!!OPS: 79
!!!OMV: 3
!!!OMD: Vivace
**kern	**kern	**dynam
*staff2	*staff1	*staff1/2
*Ipiano	*Ipiano	*Ipiano
*>[A,A,B,B1,B,B2,C]	*>[A,A,B,B1,B,B2,C]	*>[A,A,B,B1,B,B2,C]
*>norep[A,B,B2,C]	*>norep[A,B,B2,C]	*>norep[A,B,B2,C]
*>A	*>A	*>A
*clefF4	*clefG2	*
*k[f#]	*k[f#]	*
*G:	*G:	*
*M2/4	*M2/4	*
*MM144	*MM144	*
=1-	=1-	=1-
4G (4B	(8bL	p
.	16ccL	.
.	16bJJ	.
4F# 4A	8ddL	.
.	16eeL	.
.	16ddJJ	.
=2	=2	=2
4E 4G	8gL	.
.	16aL	.
.	16gJJ	.
4D 4F#	4b)	.
=3	=3	=3
4C 4E	(8eL	.
.	16f#L	.
.	16eJJ	.
4BB 4D	8gL	.
.	16aL	.
.	16gJJ	.
=4	=4	=4
4D 4F#	8aL	.
.	16bL	.
.	16aJJ	.
4GG 4G)	4b)	.
=5	=5	=5
4G (4B	(8bL	.
.	16ccL	.
.	16bJJ	.
4F# 4A	8ddL	.
.	16eeL	.
.	16ddJJ	.
=6	=6	=6
4E 4c#	8ggL	.
.	16aaL	.
.	16ggJJ	.
4D 4d)	4ff#)	.
=7	=7	=7
4G 4B	(8eeL	.
.	16ff#L	.
.	16eeJJ)	.
4A 4e	(8cc#L	.
.	16bL	.
.	16cc#JJ)	.
=8	=8	=8
8D 8d	8dd	.
8r	8r	.
4r	4r	.
=9:|!|:	=9:|!|:	=9:|!|:
*>B	*>B	*>B
(8DL	(8ddL	f
16EL	16eeL	.
16DJJ	16ddJJ	.
8BB'L)	8b'L)	.
8C#'J	8cc#'J	.
=10	=10	=10
4D	4dd	.
4DD	4d	.
=11	=11	=11
(FF#q	(f#q	.
8EE'L)	8e'L)	.
8DD'	8d'	.
8EE'	8e'	.
8FF#'J	8f#'J	.
=12	=12	=12
(4GG	(4g	.
4GGG)	4G)	.
=13	=13	=13
*^	*^	*
4D	(4D	(8ddL	4dd	p
.	.	16eeL	.	.
.	.	16ddJJ	.	.
4E	4AA	8bL	4g	.
.	.	8cc#J	.	.
=14	=14	=14	=14	=14
4D	4D	4dd	4f#	.
4D)	4GG	4b)	4fn	.
*v	*v	*	*	*
=15	=15	=15	=15
4CC 4C	(8ddL	4e	.
.	8ccn)	.	.
4DD 4D	8a	4c	.
.	8f#J	.	.
*	*v	*v	*
=16	=16	=16
*>B1	*>B1	*>B1
8GGL	8B 8g	.
8G	8r	.
8F#	4r	.
8EJ	.	.
=17:|!	=17:|!	=17:|!
*>B2	*>B2	*>B2
8GG	8B 8g	.
8r	8r	.
(8GL	4r	.
16AL	.	.
16GJJ)	.	.
=18	=18	=18
*>C	*>C	*>C
(8BL	4r	.
16cL	.	.
16BJJ)	.	.
4r	(8bL	f
.	16ccL	.
.	16bJJ)	.
=19	=19	=19
16E 16GLL	(8eL	.
16B	.	.
16E 16G	16f#L	.
16BJJ	16eJJ)	.
16E 16GLL	4gg	mf
16B	.	.
16E 16G	.	.
16BJJ	.	.
=20	=20	=20
16E 16F# 16ALL	(8ff#L	.
16B	.	.
16E 16F# 16A	8aa	.
16BJJ	.	.
16E 16F# 16ALL	8ff#	.
16B	.	.
16E 16F# 16A	8dd#J)	.
16BJJ	.	.
=21	=21	=21
16E 16GLL	(4ee	.
16B	.	.
16E 16G	.	.
16BJJ	.	.
16E 16GLL	8bL)	.
16B	.	.
16E 16G	8bJ	.
16BJJ	.	.
=22	=22	=22
16cLL	16ccLL	.
16B	16b	.
16A	16a	.
16GJJ	16gJJ	.
16F#LL	16f#LL	.
16G	16g	.
16F#	16f#	.
16EJJ	16eJJ	.
=23	=23	=23
16D#LL	16d#LL	.
16E	16e	.
16F#	16f#	.
16D#JJ	16d#JJ	.
8BBL	8BL	.
8BBJ	8B 8d# 8f#J	.
=24	=24	=24
8BBL	8B 8e 8gL	.
8BB	8B 8e 8g	.
8BB	8B 8e 8g	.
8BBJ	8B 8e 8gJ	.
=25	=25	=25
8BB	8B 8d# 8f#	.
8r	8r	.
(8BL	4r	.
16cL	.	.
16BJJ)	.	.
=26	=26	=26
2r	(8bL	f
.	16ccL	.
.	16bJJ)	.
.	4bb	.
=27	=27	=27
4r	2r	.
(8AL	.	.
16BL	.	.
16AJJ)	.	.
=28	=28	=28
2r	(8ccL	.
.	16ddL	.
.	16ccJJ)	.
.	4ccc	.
=29	=29	=29
4r	2r	.
(8F#L	.	.
16GL	.	.
16F#JJ)	.	.
=30	=30	=30
2r	(8ccL	.
.	16ddL	.
.	16ccJJ	.
.	8aaL	.
.	16bbL	.
.	16aaJJ	.
=31	=31	=31
2r	8ccL	.
.	16ddL	.
.	16ccJJ	.
.	8aaL	.
.	16bbL	.
.	16aaJJ)	.
=32	=32	=32
2r	(8ccL	.
.	16ddL	.
.	16ccJJ	.
.	8ff#L	.
.	16ggL	.
.	16ff#JJ	.
=33	=33	=33
2r	8ccL	.
.	16ddL	.
.	16ccJJ	.
.	8ddL	.
.	16eeL	.
.	16ddJJ	.
=34	=34	=34
2r	8cc#L	<
.	16ddL	.
.	16cc#JJ	.
.	8ddL	.
.	16eeL	.
.	16ddJJ	.
=35	=35	=35
2r	8ccnL	>
.	16ddL	.
.	16ccJJ	.
.	8ddL	.
.	16eeL	.
.	16ddJJ)	.
=36	=36	=36
12GL	(8bL	p
12B	.	.
.	16ccL	.
12dJ	.	.
.	16bJJ	.
12F#L	8ddL	.
12A	.	.
.	16eeL	.
12dJ	.	.
.	16ddJJ)	.
=37	=37	=37
12EL	(8gL	.
12G	.	.
.	16aL	.
12BJ	.	.
.	16gJJ	.
12DL	4b)	.
12F#	.	.
12BJ	.	.
=38	=38	=38
12CL	(8eL	.
12E	.	.
.	16f#L	.
12GJ	.	.
.	16eJJ	.
12BBL	8gL	.
12D	.	.
.	16aL	.
12GJ	.	.
.	16gJJ)	.
=39	=39	=39
12AAL	(8aL	.
12D	.	.
.	16bL	.
12F#J	.	.
.	16aJJ	.
12GGL	4b)	.
12D	.	.
12GJ	.	.
=40	=40	=40
12GL	(8bL	.
12B	.	.
.	16ccL)	.
12dJ	.	.
.	16bJJ	.
12F#L	8ddL	.
12A	.	.
.	16eeL	.
12dJ	.	.
.	16ddJJ	.
=41	=41	=41
12EL	(8ggL	.
12A	.	.
.	16aaL	.
12c#J	.	.
.	16ggJJ	.
12DL	4ff#)	.
12A	.	.
12dJ	.	.
=42	=42	=42
12GL	(8eeL	.
12B	.	.
.	16ff#L	.
12dJ	.	.
.	16eeJJ)	.
12AL	(8cc#L	.
12e	.	.
.	16bL	.
12gJ	.	.
.	16cc#JJ)	.
=43	=43	=43
12dL	8b	.
12a	.	.
.	8r	.
12f#J	.	.
12dL	4r	.
12A	.	.
12F#J	.	.
=44	=44	=44
(8DL	(8ddL	f
16EL	16eeL	.
16DJJ	16ddJJ	.
8BB'L)	8b'L)	.
8C#'J	8cc#'J	.
=45	=45	=45
4D	4dd	.
4DD	4d	.
=46	=46	=46
(FF#q	(f#q	.
8EE'L)	8e'L)	.
8DD'	8d'	.
8EE'	8e'	.
8FF#'J	8f#'J	.
=47	=47	=47
(4GG	(4g	.
4GGG)	4G)	.
=48	=48	=48
12DL	(8ddL	p
12F#	.	.
.	16eeL	.
12AJ	.	.
.	16ddJJ	.
12EL	8bL	.
12G	.	.
.	8cc#J)	.
12AJ	.	.
=49	=49	=49
12DL	(4dd	.
12F#	.	.
12AJ	.	.
12GGL	4b)	.
12Fn	.	.
12GJ	.	.
=50	=50	=50
12CL	(8ddL	.
12E	.	.
.	8ccnJ)	.
12AJ	.	.
12DL	8a'L	.
12F#	.	.
.	8f#'J	.
12AJ	.	.
=51	=51	=51
12GGL	4g	.
12D	.	.
12GJ	.	.
16r	16r	.
16GGLL	16GLL	f
16AA	16A	.
16BBJJ	16BJJ	.
=52	=52	=52
16CLL	16cLL	.
16GG	16G	.
16AA	16A	.
16BBJJ	16BJJ	.
16CLL	16cLL	.
16D	16d	.
16E	16e	.
16FnJJ	16fnJJ	.
=53	=53	=53
8C 8E 8GL	8g'L	.
8C 8E 8G	8e'	.
8C 8E 8G	8cc'	.
8C 8E 8GJ	8g'J	.
=54	=54	=54
8C 8E 8G 8cL	8ee'L	.
8C 8E 8G 8c	8cc'	.
8C 8E 8G 8c	8gg'	.
8C 8E 8G 8cJ	8ee'J	.
=55	=55	=55
[4F# [4A [4c	[4a [4aa	.
16F#] 16A] 16c]	16a] 16aa]	.
16CLL	16cLL	.
16D	16d	.
16EJJ	16eJJ	.
=56	=56	=56
*k[]	*k[]	*
16FLL	16fLL	.
16C	16c	.
16D	16d	.
16EJJ	16eJJ	.
16FLL	16fLL	.
16G	16g	.
16A	16a	.
16B-JJ	16b-JJ	.
=57	=57	=57
8F 8A 8cL	8cc'L	.
8F 8A 8c 8f	8a'	.
8F 8A 8c 8f	8ff'	.
8F 8A 8c 8fJ	8cc'J	.
=58	=58	=58
8F 8A 8c 8fL	8aa'L	.
8F 8A 8c 8f	8ff'	.
8G 8Bn 8d	8fff'	.
8G 8B 8dJ	8bbn'J	.
=59	=59	=59
[4C [4c	[4cc [4ccc	.
16C] 16c]	16cc] 16ccc]	.
16GGLL	16GLL	.
16AA	16A	.
16BBJJ	16BJJ	.
=60	=60	=60
16CLL	16cLL	.
16GG	16G	.
16AA	16A	.
16BBJJ	16BJJ	.
16CLL	16cLL	.
16D	16d	.
16E	16e	.
16FJJ	16fJJ	.
=61	=61	=61
8C 8E 8GL	16gLL	.
.	16e	.
8C 8E 8G	16c	.
.	16gJJ	.
8C 8E 8G	16ccLL	.
.	16g	.
8C 8E 8GJ	16e	.
.	16ccJJ	.
=62	=62	=62
8C 8E 8G 8cL	16eeLL	.
.	16cc	.
8C 8E 8G 8c	16g	.
.	16eeJJ	.
8C 8E 8G 8c	16ggLL	.
.	16ee	.
8C 8E 8G 8cJ	16cc	.
.	16ggJJ	.
=63	=63	=63
[4F [4A [4c	[4a [4cc [4ff [4aa	.
16F] 16A] 16c]	16a] 16cc] 16ff] 16aa]	.
16CLL	16cLL	.
16D	16d	.
16EJJ	16eJJ	.
=64	=64	=64
16FLL	16fLL	.
16C	16c	.
16D	16d	.
16EJJ	16eJJ	.
16FLL	16fLL	.
16G	16g	.
16A	16a	.
16B-JJ	16b-JJ	.
=65	=65	=65
8F 8A 8cL	16ccLL	.
.	16a	.
8F 8A 8c	16f	.
.	16ccJJ	.
8F 8A 8c	16ffLL	.
.	16cc	.
8F 8A 8cJ	16a	.
.	16ffJJ	.
=66	=66	=66
8F 8A 8c 8fL	16aaLL	.
.	16ff	.
8F 8A 8c 8f	16cc	.
.	16aaJJ	.
8G 8Bn 8d	16ffLL	.
.	16fff	.
8G 8B 8dJ	16ddd	.
.	16bbnJJ	.
=67	=67	=67
8C 8c	8ccc	.
8r	8r	.
4r	4r	.
*clefG2	*	*
=68	=68	=68
*^	*	*
12cL	4c	(8eeL	p
12e	.	.	.
.	.	16ffL	.
12gJ	.	.	.
.	.	16eeJJ	.
12BL	4B	8ggL	.
12d	.	.	.
.	.	16aaL	.
12gJ	.	.	.
.	.	16ggJJ	.
=69	=69	=69	=69
12cL	4c	8eeL	.
12e	.	.	.
.	.	16ffL	.
12gJ	.	.	.
.	.	16eeJJ	.
12BL	4B	8ggL	.
12d	.	.	.
.	.	16aaL	.
12gJ	.	.	.
.	.	16ggJJ	.
*v	*v	*	*
*clefF4	*	*
=70	=70	=70
*^	*	*
12AL	4A	8ccL	.
12c	.	.	.
.	.	16ddL	.
12eJ	.	.	.
.	.	16ccJJ	.
12G#L	4G#	8eeL	.
12B	.	.	.
.	.	16ffL	.
12eJ	.	.	.
.	.	16eeJJ	.
=71	=71	=71	=71
12AL	4A	8ccL	.
12c	.	.	.
.	.	16ddL	.
12eJ	.	.	.
.	.	16ccJJ	.
12G#L	4G#	8eeL	.
12B	.	.	.
.	.	16ffL	.
12eJ	.	.	.
.	.	16eeJJ)	.
*v	*v	*	*
=72	=72	=72
*k[f#]	*k[f#]	*
*^	*	*
12AL	4A	(8ccL	.
12c	.	.	.
.	.	16ddL	.
12eJ	.	.	.
.	.	16ccJJ	.
12F#L	4F#	8ddL	.
12A	.	.	.
.	.	16eeL	.
12dJ	.	.	.
.	.	16ddJJ)	.
*v	*v	*	*
=73	=73	=73
16GnLL	(8bL	.
16B	.	.
16d	16ccL	.
16BJJ	16bJJ	.
16F#LL	8ddL	.
16A	.	.
16d	16eeL	.
16AJJ	16ddJJ	.
=74	=74	=74
16ELL	8gL	.
16G	.	.
16B	16aL	.
16GJJ	16gJJ	.
16DLL	4b)	.
16F#	.	.
16B	.	.
16F#JJ	.	.
=75	=75	=75
16CLL	(8eL	.
16E	.	.
16G	16f#L	.
16EJJ	16eJJ	.
16BBLL	8gL	.
16D	.	.
16G	16aL	.
16DJJ	16gJJ	.
=76	=76	=76
16AALL	8aL	.
16D	.	.
16F#	16bL	.
16DJJ	16aJJ	.
16GGLL	4b)	.
16D	.	.
16G	.	.
16DJJ	.	.
=77	=77	=77
16GLL	(8bL	.
16B	.	.
16d	16ccL)	.
16BJJ	16bJJ	.
16F#LL	8ddL	.
16A	.	.
16d	16eeL	.
16AJJ	16ddJJ	.
=78	=78	=78
16ELL	8ggL	.
16A	.	.
16c#	16aaL	.
16AJJ	16ggJJ	.
16DLL	4ff#	.
16A	.	.
16d	.	.
16AJJ	.	.
=79	=79	=79
16GLL	(8eeL	.
16B	.	.
16e	16ff#L	.
16BJJ	16eeJJ)	.
.	ddq	.
16ALL	(8cc#L	.
16e	.	.
16g	16bL	.
16eJJ	16cc#JJ)	.
=80	=80	=80
16DLL	8dd	.
16F#	.	.
16A	8r	.
16dJJ	.	.
16c#LL	4r	.
16d	.	.
16cn	.	.
16AJJ	.	.
=81	=81	=81
16GLL	12r	.
16d	.	.
.	12bL	.
16B	.	.
.	12bbJ	.
16dJJ	.	.
16F#LL	12r	.
16d	.	.
.	12ddL	.
16A	.	.
.	12dddJ	.
16dJJ	.	.
=82	=82	=82
16ELL	12r	.
16B	.	.
.	12gL	.
16G	.	.
.	12ggJ	.
16BJJ	.	.
16DLL	12r	.
16B	.	.
.	12bL	.
16F#	.	.
.	12bbJ	.
16BJJ	.	.
=83	=83	=83
16CLL	12r	.
16G	.	.
.	12eL	.
16E	.	.
.	12eeJ	.
16GJJ	.	.
16BBLL	12r	.
16G	.	.
.	12gL	.
16D	.	.
.	12ggJ	.
16GJJ	.	.
=84	=84	=84
16AALL	12r	.
16F#	.	.
.	12aL	.
16D	.	.
.	12aaJ	.
16F#JJ	.	.
16GGLL	12r	.
16G	.	.
.	12bL	.
16D	.	.
.	12bbJ	.
16GJJ	.	.
=85	=85	=85
16GLL	12r	.
16d	.	.
.	12bL	.
16B	.	.
.	12bbJ	.
16dJJ	.	.
16F#LL	12r	.
16d	.	.
.	12ddL	.
16A	.	.
.	12dddJ	.
16dJJ	.	.
=86	=86	=86
16ELL	12r	.
16c#	.	.
.	12ggL	.
16A	.	.
.	12gggJ	.
16c#JJ	.	.
16DLL	12r	.
16d	.	.
.	12ff#L	.
16A	.	.
.	12fff#J	.
16dJJ	.	.
=87	=87	=87
16GLL	12r	.
16e	.	.
.	12eeL	.
16B	.	.
.	12eeeJ	.
16eJJ	.	.
16ALL	12r	.
16g	.	.
.	12cc#L	.
16e	.	.
.	12ccc#J	.
16gJJ	.	.
=88	=88	=88
16DLL	12r	.
16F#	.	.
.	12ddL	.
16A	.	.
.	12dddJ	.
16dJJ	.	.
16c#LL	4r	.
16d	.	.
16A	.	.
16F#JJ	.	.
=89	=89	=89
(8DL	(8ddL	f
16EL	16eeL	.
16DJJ	16ddJJ	.
8BB'L)	8b'L)	.
8C#'J	8cc#'J	.
=90	=90	=90
4D	4dd	.
4DD	4d	.
=91	=91	=91
(FF#q	(f#q	.
8EE'L)	8e'L)	.
8DD'	8d'	.
8EE'	8e'	.
8FF#'J	8f#'J	.
=92	=92	=92
(4GG	(4g	.
4GGG)	4G)	.
=93	=93	=93
16DLL	12r	.
16A	.	.
.	12ddL	p
16F#	.	.
.	12dddJ	.
16AJJ	.	.
16ELL	12r	.
16A	.	.
.	12cc#L	.
16G	.	.
.	12ccc#J	.
16AJJ	.	.
=94	=94	=94
16DLL	12r	.
16A	.	.
.	12ddL	.
16F#	.	.
.	12dddJ	.
16AJJ	.	.
16GGLL	12r	.
16G	.	.
.	12bL	.
16Fn	.	.
.	12bbJ	.
16GJJ	.	.
=95	=95	=95
16CLL	12r	.
16A	.	.
.	12ccnL	.
16E	.	.
.	12cccnJ	.
16AJJ	.	.
16DLL	12r	.
16c	.	.
.	12f#L	.
16A	.	.
.	12ff#J	.
16cJJ	.	.
=96	=96	=96
16G 16BLL	4g 4gg	.
16d	.	.
16c	.	.
16BJJ	.	.
16ALL	4r	.
16G	.	.
16F#	.	.
16EJJ	.	.
=97	=97	=97
(8DL	(8ddL	f
16EL	16eeL	.
16DJJ	16ddJJ	.
8BB'L)	8b'L)	.
8C#'J	8cc#'J	.
=98	=98	=98
4D	4dd	.
4DD	4d	.
*clefG2	*	*
=99	=99	=99
16ddLL	(8dddL	.
16ff#	.	.
16dd	16eeeL	.
16ff#JJ	16dddJJ	.
16eeLL	8bb'L)	.
16gg	.	.
16ee	8ccc#'J	.
16ggJJ	.	.
=100	=100	=100
8dd 8ff#	8ddd	.
8r	8r	.
4r	4r	.
*clefF4	*	*
=101	=101	=101
(FF#q	(f#q	.
8EE'L)	8e'L)	f
8DD'	8d'	.
8EE'	8e'	.
8FF#'J	8f#'J	.
=102	=102	=102
(4GG	(4g	.
4GGG)	4G)	.
=103	=103	=103
*clefG2	*	*
.	fff#q	.
16ccLL	8eee'L	p
16ee	.	.
16b	8ddd'	.
16ddJJ	.	.
16ccLL	8eee'	.
16ee	.	.
16a	8fff#'J	.
16ccJJ	.	.
=104	=104	=104
8b 8dd	8ggg	.
8r	8r	.
4r	4r	.
=105	=105	=105
*clefF4	*	*
.	(ff#q	.
16cLL	8ee'L)	.
16e	.	.
16B	8dd'	.
16dJJ	.	.
16cLL	8ee'	.
16e	.	.
16A	8ff#'J	.
16cJJ	.	.
=106	=106	=106
16BLL	8gg	.
16d	.	.
16B	8r	.
16dJJ	.	.
16GLL	(8ddL	.
16fn	.	.
16G	16eeL	.
16fJJ	16ddJJ	.
=107	=107	=107
16cLL	8ccL	.
16e	.	.
16c	16ddL	.
16eJJ	16ccJJ	.
16dLL	8aL	.
16f#	.	.
16d	16bL	.
16f#JJ	16aJJ)	.
=108	=108	=108
16GLL	(8bL	.
16g	.	.
16G	16ccL	.
16gJJ	16bJJ	.
16BLL	8ddL	.
16fn	.	.
16B	16eeL	.
16fJJ	16ddJJ	.
=109	=109	=109
16cLL	8ccL	.
16e	.	.
16c	16ddL	.
16eJJ	16ccJJ	.
16dLL	8aL	.
16f#	.	.
16d	16bL	.
16f#JJ	16aJJ)	.
=110	=110	=110
16GLL	8b	.
16g	.	.
16G	8r	.
16gJJ	.	.
16BLL	12r	.
16fn	.	.
.	12ddL	.
16B	.	.
.	12dddJ	.
16fJJ	.	.
=111	=111	=111
16cLL	12r	.
16e	.	.
.	12ccL	.
16c	.	.
.	12cccJ	.
16eJJ	.	.
16dLL	12r	.
16f#	.	.
.	12aL	.
16d	.	.
.	12aaJ	.
16f#JJ	.	.
=112	=112	=112
16GLL	12r	.
16g	.	.
.	12bL	.
16G	.	.
.	12bbJ	.
16gJJ	.	.
16BLL	12r	.
16fn	.	.
.	12ddL	.
16B	.	.
.	12dddJ	.
16fJJ	.	.
=113	=113	=113
16cLL	12r	.
16e	.	.
.	12ccL	.
16c	.	.
.	12cccJ	.
16eJJ	.	.
16dLL	12r	.
16f#	.	.
.	12aL	.
16d	.	.
.	12aaJ	.
16f#JJ	.	.
=114	=114	=114
16GLL	8bL	<
16B	.	.
16d	16ccL	.
16gJJ	16bJJ	.
16GLL	8ddL	.
16B	.	.
16d	16eeL	.
16gJJ	16ddJJ	.
=115	=115	=115
16GLL	8bL	.
16B	.	.
16d	16ccL	.
16gJJ	16bJJ	.
16GLL	8ggL	.
16B	.	.
16d	16aaL	.
16gJJ	16ggJJ	.
=116	=116	=116
16GLL	8ddL	.
16B	.	.
16d	16eeL	.
16gJJ	16ddJJ	.
16GLL	8bbL	.
16B	.	.
16d	16cccL	.
16gJJ	16bbJJ	.
=117	=117	=117
16GLL	8gg	.
16B	.	.
16d	8r	.
16gJJ	.	.
16DLL	8dd 8ff# 8aa 8ddd	p
16F#	.	.
16A	8r	.
16dJJ	.	.
=118	=118	=118
8GG	8b 8gg 8bb	.
8r	8r	.
4r	4r	.
==	==	==
*-	*-	*-
!!!verovio: beamFrenchStyle
!!!LOR: Durand 1915, plates 9327/9328, Paul Dukas, ed.
!!!PED: Dukas, Paul
!!!URL-vhv: https://verovio.humdrum.org/?file=beethoven/sonatas/sonata25-3.krn
!!!URL-pdf: https://github.com/craigsapp/beethoven-piano-sonatas/blob/master/reference-edition/sonata25-3.pdf
!!!ENC: Craig Stuart Sapp
!!!END: 2008/02/21
